X:1
T:As a Tree Beside the Water
T:Alfred Henry Ackley, 1906
T:As a Tree Beside the Water
T:Public Domain
T:Public Domain
C:Alfred Henry Ackley, 1906
Z:Public Domain
%%score ( 1 2 ) ( 3 4 )
L:1/8
M:4/4
K:Bb
V:1 treble 
V:2 treble 
V:3 bass 
V:4 bass 
V:1
 [DF]3 [^C=E] [CG]2 [DF]2 | B3 A [FA]2 [EG]2 | A3 G F2 G2 | [DF]2 [CE]2 [B,D]4 | %4
w: 1.~As a tree be-|side the wa- ter,|the~Sav- ior plant- ed|All my fruit|
w: 2.~Though the tem- pest|rage a- round me,|the~storm my Lord I|Point- ing up-|
w: 3.~When by grief my|heart is brok- en,|the~sun- shine steals a-|Then His grace,|
w: 4.~When at last I|stand be- fore Him,|what~joy it will af-|Just to see|
 [DF]3 [^C=E] [CG]2 [DF]2 | [FB]3 [F=B] c2 G2 | [Ge]3 [FGd] [EGc]2 [^CGB]2 | [DFB]2 [CEA]2 [DB]4 || %8
w: shall be in sea-|son, I shall live|ter- nal- ly. *||
w: ward to that ha-|ven, Where my loved|wait for me. *||
w: in mer- cy giv-|en, Chang- es dark-|in- to day. I|shall not be|
w: the sin- ner ran-|somed, And be- hold|sov- ereign Lord. *||
"^Refrain" [DF]3 [^C=E] [CG]2 (DB,) | (A,A,A,A, [CE]4) | [Ec]3 [D=B] [Fd]2 [Ec]2 | (EDF-E D2 F2) | %12
w: ||||
w: ||||
w: moved, I shall not *|moved, * * * *|* chored to the|Rock * * * * *|
w: ||||
 [EG]3 [EG] [EA]3 [EA] | [FB]2 [Fd]2 [_Af]2 [Ge]2 | [Fd]3 [FB] [EA]2 [Ec]2 | [DB]8 |] %16
w: ||||
w: ||||
w: Ag- es, I shall|not be moved. *|||
w: ||||
V:2
 x8 | F4 x4 | E4- E4 | x8 | x8 | x4 E4 | x8 | x8 || x6 F2 | E4- x4 | x8 | F4 F4 | x8 | x8 | x8 | %15
w: |Has|me; *|||e-||||||||||
w: |Through|see, *|||ones||||||||||
w: |And|way, *|||ness|||be|An-||of *||||
w: |Oh,|ford, *|||my||||||||||
 x8 |] %16
w: |
w: |
w: |
w: |
V:3
 B,3 G, (=E,G,) B,2 | D,4 E,4 | (F,2 C)B, A,4 | [F,-B,]2 [F,,F,]2 (B,,B,,D,F,) | %4
 B,3 G, (=E,G,) B,2 | B,3 G, G,2 C2 | [C,C]3 [D,=B,] [E,C]2 =E,2 | F,2- [F,,F,-]2 [B,,F,]4 || %8
 [B,,B,]3 [B,,G,] [B,,=E,]2 ([B,,F,][D,B,]) | ([C,F,][F,,F,][A,,F,][C,F,] [F,A,]4) | %10
 [F,A,]3 [F,^G,] [F,A,]2 [F,A,]2 | (CB,A,G, [B,,F,]2 [D,B,]2) | [E,B,]3 [E,B,] [C,F,]3 [C,F,] | %13
 [D,B,]2 [B,,B,]2 [D,B,]2 [E,B,]2 | [F,B,]3 [F,D] [F,C]2 [F,A,]2 | [B,,F,]8 |] %16
V:4
 B,,8 | B,8 | F,8 | x4 F,4 | B,,8 | D,4 C,4 | x8 | x8 || x8 | x8 | x8 | B,,4- x4 | x8 | x8 | x8 | %15
 x8 |] %16

